X:1
T:Skopje, 76.86
T:Skopje, 76.86
T:Theodore Edson Perkins, 1907
T:Public Domain Courtesy of the Cyber Hymnal™
C:Theodore Edson Perkins, 1907
Z:Public Domain
Z:Courtesy of the Cyber Hymnal™
%%score ( 1 2 ) ( 3 4 )
L:1/8
Q:1/4=105
M:4/4
K:Eb
V:1 treble 
V:2 treble 
V:3 bass 
V:4 bass 
V:1
 E2 | [EG]2 [EG]2 [DF]2 E2 | [EG]2 [GB]4 [GB]2 | [Ac]2 [Ac]2 [EA]2 [Ac]2 | [GB]6 [AB]2 | %5
 [Be]2 [Ge]2 [GB]2 [EG]2 | [Ee]2 [Ec]2 [GB]2 [FA]2 | [EG]2 [EB]2 [DF]2 [DF]2 | E6 |] %9
V:2
 E2 | x6 E2 | x8 | x8 | x8 | x8 | x8 | x8 | E6 |] %9
V:3
 [E,G,]2 | [E,B,]2 B,2 [A,B,]2 [G,B,]2 | [E,B,]2 [E,E]4 [E,E]2 | [A,E]2 [A,E]2 [A,C]2 [A,E]2 | %4
 [E,E]6 [F,D]2 | [G,E]2 [E,B,]2 [E,E]2 [E,B,]2 | [G,B,]2 [A,C]2 [E,E]2 [A,,C]2 | %7
 [B,,B,]2 [B,,G,]2 [B,,A,]2 [B,,A,]2 | [E,G,]6 |] %9
V:4
 x2 | x2 B,2 x4 | x8 | x8 | x8 | x8 | x8 | x8 | x6 |] %9

